X: 21501
M: 3/4
L: 1/8
K: D
(d<f) (e<d) (c>B) | (A>B) (A<c) (d<B) | (A>B) (A<F) E>F | {F}E4 F>G |
d2 (f<d) (f<d) | B2 A2 d2 | (e>f) (g<f) (e<d) | (c2 B2) A>G |


